src/img/namber-2.svg

<svg width="258" height="176" viewBox="0 0 258 176" fill="none" xmlns="http://www.w3.org/2000/svg">
<path opacity="0.1" d="M67.6 175.36C46.64 175.36 30.16 167.44 18.16 151.6C6.32 135.6 0.4 114.4 0.4 88C0.4 61.6 6.32 40.48 18.16 24.64C30.16 8.63999 46.64 0.639989 67.6 0.639989C88.72 0.639989 105.2 8.63999 117.04 24.64C128.88 40.48 134.8 61.6 134.8 88C134.8 114.4 128.88 135.6 117.04 151.6C105.2 167.44 88.72 175.36 67.6 175.36ZM42.16 129.04C47.92 138.32 56.4 142.96 67.6 142.96C78.8 142.96 87.28 138.24 93.04 128.8C98.96 119.36 101.92 105.76 101.92 88C101.92 70.08 98.96 56.4 93.04 46.96C87.28 37.52 78.8 32.8 67.6 32.8C56.4 32.8 47.92 37.52 42.16 46.96C36.4 56.4 33.52 70.08 33.52 88C33.52 105.92 36.4 119.6 42.16 129.04ZM145.433 172V147.28L202.793 88.24C215.593 74.8 221.993 63.6 221.993 54.64C221.993 48.08 219.913 42.8 215.753 38.8C211.753 34.8 206.553 32.8 200.153 32.8C187.513 32.8 178.153 39.36 172.073 52.48L144.233 36.16C149.513 24.64 157.113 15.84 167.033 9.75999C176.953 3.67999 187.833 0.639989 199.673 0.639989C214.873 0.639989 227.913 5.43999 238.793 15.04C249.673 24.48 255.113 37.28 255.113 53.44C255.113 70.88 245.913 88.8 227.513 107.2L194.633 140.08H257.753V172H145.433Z" fill="white"/>
</svg>

<svg width="258" height="176" fill="none" xmlns="http://www.w3.org/2000/svg"><path opacity=".1" d="M67.6 175.36c-20.96 0-37.44-7.92-49.44-23.76C6.32 135.6.4 114.4.4 88s5.92-47.52 17.76-63.36c12-16 28.48-24 49.44-24 21.12 0 37.6 8 49.44 24C128.88 40.48 134.8 61.6 134.8 88s-5.92 47.6-17.76 63.6c-11.84 15.84-28.32 23.76-49.44 23.76zm-25.44-46.32c5.76 9.28 14.24 13.92 25.44 13.92 11.2 0 19.68-4.72 25.44-14.16 5.92-9.44 8.88-23.04 8.88-40.8 0-17.92-2.96-31.6-8.88-41.04C87.28 37.52 78.8 32.8 67.6 32.8c-11.2 0-19.68 4.72-25.44 14.16C36.4 56.4 33.52 70.08 33.52 88c0 17.92 2.88 31.6 8.64 41.04zM145.433 172v-24.72l57.36-59.04c12.8-13.44 19.2-24.64 19.2-33.6 0-6.56-2.08-11.84-6.24-15.84-4-4-9.2-6-15.6-6-12.64 0-22 6.56-28.08 19.68l-27.84-16.32c5.28-11.52 12.88-20.32 22.8-26.4 9.92-6.08 20.8-9.12 32.64-9.12 15.2 0 28.24 4.8 39.12 14.4 10.88 9.44 16.32 22.24 16.32 38.4 0 17.44-9.2 35.36-27.6 53.76l-32.88 32.88h63.12V172h-112.32z" fill="#fff"/></svg>
